X: 2694
T: Banks Of Inverness, The
R: polka
M: 2/4
K: Gmajor
E|:DD/E/ DB,|DE GG/A/|Bd AB/A/|GE E2|
DD/E/ DB,|DE G>A|Bd AB/A/|1 G2 G2:|2 G2 GG/A/||
Bd dc/B/|ce ed/c/|Bd BB/A/|GE EE/G/|
Bd dB|ce ee/f/|ge fd|e2 e>f|
ge fd|e/f/e/d/ BA|Bd AB/A/|GE E2|
DD/E/ DB,|DE G>A|Bd AB/A/|G2 GG/A/||
Bd Bd|Bd d2|ed Bd|ed d2|
Bd Bd|Bd d2|ed BG|AG G>A|
GB dB/d/|ed c>e|dB GA|BA AF|
GB dB/d/|ed c>e|dB GE|ED D2||

